X:1
T:Felix the Soldier
M:6/8
L:1/4
K:G
 B3| A G/2 E E/2| E3/2 F E/2| D E/2 D B,/2| D3/2 z D/2| G G/2 A A/2|\
 B d/2 d c/2| B E/2 E E/2| E z/2 B A/2| G/2 G E E/2| E z/2 F E/2| D E/2 D B,/2|\
 D3/2 D D/2| G G/2 A A/2| B B/2 d c/2| B E/2 E E/2| E3|
